dist/svg/u1F9C9.svg

<?xml version="1.0" encoding="UTF-8"?><svg id="Layer_1" xmlns="http://www.w3.org/2000/svg" viewBox="0 0 40 40"><g><path d="M4.38853,21.99736c0,8.28568,6.98948,15.00264,15.61151,15.00264s15.61143-6.71696,15.61143-15.00264c0-3.99798-1.70895-7.80136-4.36177-10.49054H8.74714c-2.65282,2.68918-4.35861,6.49256-4.35861,10.49054Z" style="fill:#964018;"/><ellipse cx="19.93598" cy="14.21265" rx="12.04187" ry="7.71976" style="fill:#e7e7e7;"/><g><path d="M19.93601,8.96094c-4.52431,0-8.19202,2.351-8.19202,5.25156,0,2.51118,2.75052,4.60716,6.42403,5.12563l2.34554-10.35822c-.19159-.00896-.38259-.01897-.57754-.01897Z" style="fill:#23b169;"/><path d="M28.12797,14.21249c0-2.20979-2.13228-4.09766-5.14769-4.87272l-2.27355,10.09951c4.16246-.24922,7.42124-2.49326,7.42124-5.22679Z" style="fill:#23b169;"/><path d="M31.84546,2.01953l-9.34509,1.63928c-.49292,.0863-.88586,.45996-.9967,.94788l-3.33563,14.73145c.56995,.08057,1.16028,.12598,1.76801,.12598,.26019,0,.51666-.00952,.77069-.0249l2.82147-12.5332c.12976-.57324,.5907-1.0116,1.16919-1.11328l7.57648-1.32935c.67554-.11804,1.12646-.76086,1.00848-1.43689-.11798-.67542-.76282-1.12805-1.43689-1.00696Z" style="fill:#767676;"/></g></g><rect y="0" width="40" height="40" style="fill:none;"/></svg>

<svg id="Layer_1" data-name="Layer 1" xmlns="http://www.w3.org/2000/svg" viewBox="0 0 40 40"><defs><style>.cls-1{fill:#964018;}.cls-2{fill:#e7e7e7;}.cls-3{fill:#23b169;}.cls-4{fill:#767676;}.cls-5{fill:none;}</style></defs><path class="cls-1" d="M4.389,22c0,8.286,6.989,15,15.611,15s15.611-6.717,15.611-15a15.123,15.123,0,0,0-4.361-10.49H8.747A15.121,15.121,0,0,0,4.389,22Z"/><ellipse class="cls-2" cx="19.936" cy="14.213" rx="12.042" ry="7.72"/><path class="cls-3" d="M19.936,8.961c-4.524,0-8.192,2.351-8.192,5.251,0,2.512,2.751,4.608,6.424,5.126L20.514,8.98C20.322,8.971,20.131,8.961,19.936,8.961Z"/><path class="cls-3" d="M28.128,14.212c0-2.209-2.132-4.1-5.148-4.872l-2.273,10.1C24.869,19.19,28.128,16.946,28.128,14.212Z"/><path class="cls-4" d="M31.845,2.02,22.5,3.659a1.24,1.24,0,0,0-1,.948L18.168,19.338a12.556,12.556,0,0,0,1.768.126c.26,0,.517-.009.771-.025L23.528,6.906A1.457,1.457,0,0,1,24.7,5.793l7.577-1.33a1.24,1.24,0,1,0-.429-2.443Z"/><rect class="cls-5" width="40" height="40"/></svg>
